X:1     
T:The Death of Queen Jane
B:One Hundred English Folksongs, Ed C Sharp, ISBN 0-486-23192-5
Z:Cecil Sharp
F:http://www.folkinfo.org/songs
M:3/4     
L:1/8     
K:D
F2 |E3/2C/ D2 F2 |E3/2C/ D2 F3/2G/ |B2 A2 d2 |
w:Queen Jane_ was in la-* bour For_ six days or 
A4 (3ABc |d2 F2 G3/2B/ |A3/2F/ D2 E2 |F2 A2 F3/2D/ | D3 |]
w:more Till_ her wo-men got_ tired__ And wished it were_ o'er
